img/svg/placeholder-cyberware.svg

<svg xmlns="http://www.w3.org/2000/svg" viewBox="0 0 512 512" style="height: 512px; width: 512px;"><g class="" transform="translate(0,0)" style=""><path d="M413.72 19.395v98.64l-46.116 46.117-34.198-34.2-6.607 6.61-141.52 141.516 113.513 113.51-52.775 52.773.002 50.31h18.687v-42.568l47.3-47.3 21.4 21.4 148.122-148.124-60.165-60.164 67.447-67.45V19.395h-18.687v123.33L408.148 204.7l-27.332-27.333 51.59-51.59V19.395H413.72zM19.36 30.303V48.99h186.607l44.254 44.254a29.587 29.587 0 0 0-4.032 14.947c0 16.422 13.312 29.736 29.732 29.736s29.732-13.314 29.732-29.735c0-16.42-13.312-29.73-29.732-29.73-4.143 0-8.088.85-11.672 2.382l-50.54-50.54H19.36zm0 55.478v18.69l131.126.003 44.254 44.254a29.587 29.587 0 0 0-4.035 14.947c0 16.42 13.312 29.732 29.732 29.732s29.733-13.312 29.733-29.732-13.312-29.733-29.732-29.733c-4.144 0-8.088.85-11.672 2.382l-50.54-50.54H19.362zm83.386 55.482-83.385.002v18.69l75.646-.003 44.254 44.26a29.579 29.579 0 0 0-4.033 14.946c0 16.42 13.312 29.733 29.732 29.733s29.73-13.313 29.73-29.734c0-16.42-13.31-29.734-29.73-29.734-4.145 0-8.09.85-11.675 2.383l-50.54-50.543zm230.66 15.12L455.1 278.08 333.406 399.77 211.71 278.08l121.696-121.695zm-1.254 27.388-94.574 94.574 95.012 95.015 13.215-13.214-81.797-81.8 81.36-81.362-13.216-13.214zm-312.79 21.558v51.207l160.13 160.13v78.005h18.69V384.146L19.362 205.328zm346.51 8.397L352.66 226.94l51.48 51.482-51.77 51.77 13.218 13.214 64.982-64.984-64.695-64.697zm-29.93 33.16c-17.45 0-31.592 14.147-31.592 31.594 0 17.445 14.143 31.59 31.59 31.59 17.45 0 31.593-14.145 31.593-31.59 0-17.45-14.143-31.595-31.592-31.595zM19.36 295.35v51.207l94.886 94.88v53.233h18.688v-85.75L19.362 295.35zm427.378 73.154c-16.42 0-29.732 13.312-29.732 29.732s13.312 29.735 29.732 29.735c3.994 0 7.802-.794 11.28-2.222l36.62 36.615v-26.427l-22.402-22.4a29.594 29.594 0 0 0 4.237-15.3c0-16.42-13.314-29.732-29.735-29.732zM19.36 386.19v51.21l31.294 31.29-.002 25.982H69.34l.006-58.496L19.36 386.19zm371.902 37.796c-16.42 0-29.733 13.312-29.733 29.733 0 16.42 13.31 29.73 29.732 29.73 3.513 0 6.882-.612 10.01-1.73l12.955 12.95h26.43l-24.58-24.578a29.595 29.595 0 0 0 4.917-16.373c0-16.422-13.312-29.734-29.732-29.734z" fill="#fff" fill-opacity="1"></path></g></svg>

<svg width="512" height="512" viewBox="0 0 512 512" fill="none" xmlns="http://www.w3.org/2000/svg">
<path d="M413.72 19.395V118.035L367.604 164.152L333.406 129.952L326.799 136.562L185.279 278.078L298.792 391.588L246.017 444.361L246.019 494.671H264.706V452.103L312.006 404.803L333.406 426.203L481.528 278.079L421.363 217.915L488.81 150.465V19.395H470.123V142.725L408.148 204.7L380.816 177.367L432.406 125.777V19.395H413.72ZM19.3601 30.303V48.99H205.967L250.221 93.244C247.574 97.7802 246.183 102.939 246.189 108.191C246.189 124.613 259.501 137.927 275.921 137.927C292.341 137.927 305.653 124.613 305.653 108.192C305.653 91.772 292.341 78.462 275.921 78.462C271.778 78.462 267.833 79.312 264.249 80.844L213.709 30.304H19.3601V30.303ZM19.3601 85.781V104.471L150.486 104.474L194.74 148.728C192.092 153.264 190.7 158.423 190.705 163.675C190.705 180.095 204.017 193.407 220.437 193.407C236.857 193.407 250.17 180.095 250.17 163.675C250.17 147.255 236.858 133.942 220.438 133.942C216.294 133.942 212.35 134.792 208.766 136.324L158.226 85.784H19.3621L19.3601 85.781ZM102.746 141.263L19.3611 141.265V159.955L95.0071 159.952L139.261 204.212C136.614 208.748 135.222 213.906 135.228 219.158C135.228 235.578 148.54 248.891 164.96 248.891C181.38 248.891 194.69 235.578 194.69 219.157C194.69 202.737 181.38 189.423 164.96 189.423C160.815 189.423 156.87 190.273 153.285 191.806L102.746 141.263ZM333.406 156.383L455.1 278.08L333.406 399.77L211.71 278.08L333.406 156.385V156.383ZM332.152 183.771L237.578 278.345L332.59 373.36L345.805 360.146L264.008 278.346L345.368 196.984L332.152 183.771ZM19.3621 205.329V256.536L179.492 416.666V494.671H198.182V384.146L19.3621 205.329ZM365.872 213.726L352.66 226.94L404.14 278.422L352.37 330.192L365.588 343.406L430.57 278.422L365.875 213.725L365.872 213.726ZM335.942 246.886C318.492 246.886 304.35 261.033 304.35 278.48C304.35 295.925 318.493 310.07 335.94 310.07C353.39 310.07 367.533 295.925 367.533 278.48C367.533 261.03 353.39 246.885 335.941 246.885L335.942 246.886ZM19.3601 295.35V346.557L114.246 441.437V494.67H132.934V408.92L19.3621 295.35H19.3601ZM446.738 368.504C430.318 368.504 417.006 381.816 417.006 398.236C417.006 414.656 430.318 427.971 446.738 427.971C450.732 427.971 454.54 427.177 458.018 425.749L494.638 462.364V435.937L472.236 413.537C475.016 408.918 476.481 403.628 476.473 398.237C476.473 381.817 463.159 368.505 446.738 368.505V368.504ZM19.3601 386.19V437.4L50.6541 468.69L50.6521 494.672H69.3401L69.3461 436.176L19.3601 386.19ZM391.262 423.986C374.842 423.986 361.529 437.298 361.529 453.719C361.529 470.139 374.839 483.449 391.261 483.449C394.774 483.449 398.143 482.837 401.271 481.719L414.226 494.669H440.656L416.076 470.091C419.29 465.236 421 459.541 420.993 453.718C420.993 437.296 407.681 423.984 391.261 423.984L391.262 423.986Z" fill="#444856"/>
</svg>
